bundles/org.openhab.ui.habpanel/web/assets/icons/freepik-household/flower.svg

<svg xmlns="http://www.w3.org/2000/svg" viewBox="0 0 58.083 58.083" style="enable-background:new 0 0 58.083 58.083" xml:space="preserve"><path d="m14.822 33.083 3.911 19.556a3.048 3.048 0 0 0 2.981 2.444h14.654a3.048 3.048 0 0 0 2.981-2.444l3.911-19.556H30.04v-8.08c3.387-.488 6-3.401 6-6.92a1 1 0 0 0-1-1c-1.958 0-3.728.81-5 2.111v-4.136a5.506 5.506 0 0 0 5-5.475V4.406l.002-.026-.035-1.464-4.965 1.754V2.553L24.384.555 23.082 0l-.04 9.583a5.506 5.506 0 0 0 5 5.475v11.136a6.977 6.977 0 0 0-5-2.111 1 1 0 0 0-1 1c0 3.519 2.613 6.432 6 6.92v1.08h-13.22zm18.22-27.352v3.852a3.507 3.507 0 0 1-3 3.465V6.79l3-1.059zm-8 3.852V2.908l3 1.059v9.081a3.507 3.507 0 0 1-3-3.465zm8.855 9.645a5.001 5.001 0 0 1-3.71 3.71 4.998 4.998 0 0 1 3.71-3.71zm-9.711 7a5.001 5.001 0 0 1 3.71 3.71 5.001 5.001 0 0 1-3.71-3.71zm12.183 26.855H21.714c-.494 0-.923-.352-1.021-.837l-.833-4.163h18.36l-.833 4.163a1.04 1.04 0 0 1-1.018.837zm2.253-7H19.461l-2.2-11h23.561l-2.2 11z"/><path d="M44.749 53.376a.999.999 0 0 0-1.414 0l-2.707 2.707H17.456l-2.707-2.707a.999.999 0 1 0-1.414 1.414l2.999 2.999a.99.99 0 0 0 .326.217.991.991 0 0 0 .382.077h24a1.01 1.01 0 0 0 .708-.294l2.999-2.999a1 1 0 0 0 0-1.414z"/></svg>

<?xml version="1.0" encoding="iso-8859-1"?>
<!-- Generator: Adobe Illustrator 18.0.0, SVG Export Plug-In . SVG Version: 6.00 Build 0)  -->
<!DOCTYPE svg PUBLIC "-//W3C//DTD SVG 1.1//EN" "http://www.w3.org/Graphics/SVG/1.1/DTD/svg11.dtd">
<svg version="1.1" id="Capa_1" xmlns="http://www.w3.org/2000/svg" xmlns:xlink="http://www.w3.org/1999/xlink" x="0px" y="0px"
	 viewBox="0 0 58.083 58.083" style="enable-background:new 0 0 58.083 58.083;" xml:space="preserve">
<g>
	<path d="M14.822,33.083l3.911,19.556c0.283,1.416,1.537,2.444,2.981,2.444h14.654c1.444,0,2.698-1.028,2.981-2.444l3.911-19.556
		h-13.22v-8.08c3.387-0.488,6-3.401,6-6.92c0-0.553-0.448-1-1-1c-1.958,0-3.728,0.81-5,2.111v-4.136c2.799-0.254,5-2.611,5-5.475
		V4.406l0.002-0.026l-0.035-1.464L30.042,4.67V2.553l-5.658-1.998L23.082,0l-0.04,9.583c0,2.864,2.201,5.221,5,5.475v11.136
		c-1.272-1.3-3.042-2.111-5-2.111c-0.552,0-1,0.447-1,1c0,3.519,2.613,6.432,6,6.92v1.08H14.822z M33.042,5.731v3.852
		c0,1.76-1.306,3.221-3,3.465V6.79L33.042,5.731z M25.042,9.583V2.908l3,1.059v1.409v7.672
		C26.348,12.804,25.042,11.343,25.042,9.583z M33.897,19.228c-0.434,1.835-1.875,3.277-3.71,3.71
		C30.62,21.103,32.061,19.661,33.897,19.228z M24.186,26.228c1.835,0.434,3.277,1.875,3.71,3.71
		C26.061,29.505,24.62,28.063,24.186,26.228z M36.369,53.083H21.714c-0.494,0-0.923-0.352-1.021-0.837l-0.833-4.163h18.36
		l-0.833,4.163C37.292,52.731,36.863,53.083,36.369,53.083z M38.622,46.083H19.461l-2.2-11h23.561L38.622,46.083z"/>
	<path d="M44.749,53.376c-0.391-0.391-1.023-0.391-1.414,0l-2.707,2.707H17.456l-2.707-2.707c-0.391-0.391-1.023-0.391-1.414,0
		s-0.391,1.023,0,1.414l2.999,2.999c0.092,0.093,0.203,0.166,0.326,0.217c0.122,0.051,0.252,0.077,0.382,0.077h24
		c0.13,0,0.26-0.027,0.382-0.077c0.123-0.051,0.233-0.124,0.326-0.217l2.999-2.999C45.139,54.399,45.139,53.767,44.749,53.376z"/>
</g>
<g>
</g>
<g>
</g>
<g>
</g>
<g>
</g>
<g>
</g>
<g>
</g>
<g>
</g>
<g>
</g>
<g>
</g>
<g>
</g>
<g>
</g>
<g>
</g>
<g>
</g>
<g>
</g>
<g>
</g>
</svg>
